svg/fluentui-system-icons/ic_fluent_arrow_turn_up_down_48_filled.svg

<svg width="48" height="48" viewBox="0 0 48 48" fill="none" xmlns="http://www.w3.org/2000/svg">
<path d="M10.8935 39.0565C10.5864 39.8259 9.7137 40.2006 8.94431 39.8935C8.17491 39.5864 7.80017 38.7137 8.10729 37.9443L20.7023 6.39154C21.5315 4.3142 24.4625 4.28787 25.3289 6.34995L37.6221 35.6077L41.1348 27.8797C41.4777 27.1255 42.3669 26.792 43.1211 27.1348C43.8753 27.4776 44.2088 28.3669 43.8659 29.1211L38.8659 40.1211C38.5308 40.8583 37.671 41.1965 36.9235 40.885L24.9235 35.885C24.1588 35.5664 23.7972 34.6882 24.1158 33.9235C24.4344 33.1588 25.3126 32.7971 26.0773 33.1158L34.8583 36.7745L23.036 8.63736L10.8935 39.0565Z" fill="#212121"/>
</svg>

<svg xmlns="http://www.w3.org/2000/svg" width="48" height="48"><path d="M10.893 39.056a1.5 1.5 0 1 1-2.786-1.112L20.702 6.392c.83-2.078 3.76-2.104 4.627-.042l12.293 29.258 3.513-7.728a1.5 1.5 0 0 1 2.73 1.241l-5 11a1.5 1.5 0 0 1-1.942.764l-12-5a1.5 1.5 0 1 1 1.154-2.77l8.781 3.66L23.036 8.637l-12.143 30.42Z"/></svg>
